packages/foundations/assets/icons/functional/images/editing/block_28.svg

<svg width="28" height="28" viewBox="0 0 28 28" fill="none" xmlns="http://www.w3.org/2000/svg">
<g clip-path="url(#clip0_83_106)">
<path fill-rule="evenodd" clip-rule="evenodd" d="M14 3.5C19.799 3.5 24.5 8.201 24.5 14C24.5 16.584 23.566 18.95 22.018 20.78L22.043 20.806L20.806 22.043L20.78 22.018C18.8863 23.624 16.483 24.5038 14 24.5C8.201 24.5 3.5 19.799 3.5 14C3.5 11.416 4.434 9.05 5.982 7.22L5.957 7.194L7.194 5.957L7.22 5.982C9.1137 4.37603 11.517 3.49623 14 3.5ZM5.25 14C5.25005 15.6559 5.71999 17.2779 6.60523 18.6773C7.49046 20.0768 8.75464 21.1963 10.2509 21.9058C11.7471 22.6154 13.4139 22.8857 15.0577 22.6856C16.7015 22.4854 18.2548 21.8229 19.537 20.775L7.225 8.463C5.94518 10.0242 5.2471 11.9813 5.25 14ZM14 5.25C11.9 5.25 9.971 5.99 8.463 7.225L20.775 19.537C21.8229 18.2548 22.4854 16.7015 22.6856 15.0577C22.8858 13.4139 22.6154 11.7471 21.9058 10.2509C21.1963 8.75463 20.0768 7.49046 18.6773 6.60522C17.2779 5.71999 15.6559 5.25005 14 5.25Z" fill="#1A1C1F"/>
</g>
<defs>
<clipPath id="clip0_83_106">
<rect width="28" height="28" fill="white"/>
</clipPath>
</defs>
</svg>

<svg xmlns="http://www.w3.org/2000/svg" width="28" height="28" fill="none"><g clip-path="url(#a)"><path fill="#1A1C1F" fill-rule="evenodd" d="M14 3.5c5.799 0 10.5 4.701 10.5 10.5 0 2.584-.934 4.95-2.482 6.78l.025.026-1.237 1.237-.026-.025A10.46 10.46 0 0 1 14 24.5C8.201 24.5 3.5 19.799 3.5 14c0-2.584.934-4.95 2.482-6.78l-.025-.026 1.237-1.237.026.025A10.46 10.46 0 0 1 14 3.5M5.25 14a8.75 8.75 0 0 0 14.287 6.775L7.225 8.463A8.7 8.7 0 0 0 5.25 14M14 5.25c-2.1 0-4.029.74-5.537 1.975l12.312 12.312A8.75 8.75 0 0 0 14 5.25" clip-rule="evenodd"/></g><defs><clipPath id="a"><path fill="#fff" d="M0 0h28v28H0z"/></clipPath></defs></svg>
